svgs/light/washing-machine.svg

<svg xmlns="http://www.w3.org/2000/svg" viewBox="0 0 448 512"><!--! Font Awesome Pro 6.0.0-alpha3 by @fontawesome - https://fontawesome.com License - https://fontawesome.com/license (Commercial License) --><path d="M352 0H96C42.98 0 0 42.98 0 96v352c0 35.35 28.65 64 64 64h320c35.35 0 64-28.65 64-64V96C448 42.98 405 0 352 0zM416 448c0 17.64-14.36 32-32 32H64c-17.64 0-32-14.36-32-32V96c0-35.29 28.71-64 64-64h256c35.29 0 64 28.71 64 64V448zM192.1 120C205.3 120 216 109.3 216 96S205.3 72 192.1 72C178.7 72 168 82.75 168 96S178.7 120 192.1 120zM120 96c0-13.25-10.69-24-24-24C82.82 72 72 82.75 72 96S82.82 120 96 120C109.3 120 120 109.3 120 96zM224 160c-79.52 0-143.1 64.5-143.1 144s64.46 144 143.1 144s143.1-64.5 143.1-144S303.5 160 224 160zM224 416c-56.97 0-103.6-42.93-110.6-98.06c22.45 7.602 47.68 4.746 67.71-8.938C193.6 317.6 208.6 322.3 224 322.3c15.41 0 30.44-4.75 42.92-13.38c12.3 8.469 26.78 13.12 42 13.34c8.893-.1797 17.49-1.855 25.68-4.609C327.8 372.9 281.1 416 224 416zM309.4 290.3c-11.78-.1562-22.81-4.938-31.06-13.44c-4.531-4.625-11.42-6.094-17.5-3.594c-2.422 1-4.516 2.531-6.141 4.469c-16.25 16.19-46.02 15.97-61.92-.625c-3-3.125-7.141-4.906-11.47-4.938c-4.438 .6562-8.5 1.719-11.52 4.812c-14.98 15.38-38.17 16.66-55.54 5.383C124.3 230.9 169.7 192 224 192c54.58 0 100 39.3 109.9 91.06C326.6 287.5 318.1 289.6 309.4 290.3z"/></svg>

<svg xmlns="http://www.w3.org/2000/svg" viewBox="0 0 448 512"><!-- Font Awesome Pro 6.0.0-alpha2 by @fontawesome - https://fontawesome.com License - https://fontawesome.com/license (Commercial License) --><path d="M352 0H96C42.98 0 0 42.98 0 96V448C0 483.348 28.654 512 64 512H384C419.346 512 448 483.348 448 448V96C448 42.98 405.02 0 352 0ZM416 448C416 465.645 401.645 480 384 480H64C46.355 480 32 465.645 32 448V96C32 60.711 60.711 32 96 32H352C387.289 32 416 60.711 416 96V448ZM192.062 120C205.277 120 216 109.25 216 96S205.277 72 192.062 72C178.723 72 168 82.75 168 96S178.723 120 192.062 120ZM120 96C120 82.75 109.307 72 96 72C82.818 72 72 82.75 72 96S82.818 120 96 120C109.307 120 120 109.25 120 96ZM224 160C144.48 160 80.018 224.5 80.018 304S144.48 448 224 448S367.982 383.5 367.982 304S303.52 160 224 160ZM224 416C167.025 416 120.379 373.07 113.428 317.938C135.881 325.539 161.107 322.684 181.141 309C193.609 317.562 208.609 322.312 224 322.312C239.406 322.312 254.438 317.562 266.922 308.937C279.219 317.406 293.703 322.062 308.922 322.281C317.814 322.102 326.414 320.426 334.6 317.672C327.766 372.93 281.066 416 224 416ZM309.359 290.281C297.578 290.125 286.547 285.344 278.297 276.844C273.766 272.219 266.875 270.75 260.797 273.25C258.375 274.25 256.281 275.781 254.656 277.719C238.406 293.906 208.641 293.687 192.734 277.094C189.734 273.969 185.594 272.188 181.266 272.156C176.828 272.812 172.766 273.875 169.75 276.969C154.771 292.344 131.582 293.625 114.207 282.352C124.33 230.93 169.664 192 224 192C278.578 192 324.016 231.297 333.865 283.059C326.568 287.5 318.053 289.559 309.359 290.281Z"/></svg>
